svg/cloud.svg

<svg width="319" height="106" viewBox="0 0 319 106" fill="none" xmlns="http://www.w3.org/2000/svg">
<path d="M11.9997 78C19.7051 61.9644 28.3319 49.7812 43.6664 40.5556C51.7356 35.7009 62.6708 30.1111 72.4442 30.1111C76.4628 30.1111 77.6952 33.5037 80.2219 35.7778C80.8881 36.3773 81.1489 34.7879 81.2219 34.5556C82.0727 31.8484 83.5488 29.562 85.5553 27.5556C96.0035 17.1073 116.718 16.3223 129.611 22.1111C132.108 23.2325 147.81 35.3723 149.555 32.8333C153.439 27.1838 156.32 20.3793 162.222 16.4444C170.984 10.6031 184.082 8.93368 194.222 7.61111C202.778 6.49513 210.586 5.71124 215.777 13.5556C216.128 14.0853 219.926 20.9627 220.555 20.3333C224.635 16.2532 226.485 11.9169 231.889 8.77778C242.173 2.80305 252.356 2 264 2C277.485 2 290.213 4.40856 301.777 11.7778C310.792 17.5221 314.221 27.4282 315.889 37.5556C317.491 47.2854 318.379 59.1775 314.277 68.4444C309.185 79.9507 296.717 89.7079 286 95.7778C264.407 108.007 236.047 103.035 212.777 100C192.454 97.3491 171.249 99 150.777 99C127.822 99 104.952 98 81.9997 98C65.5676 98 49.2435 96 32.7775 96C27.4226 96 21.7593 95.9016 16.5553 94.4444C13.2146 93.5091 9.37477 93.8287 6.22193 92.7778C-0.290434 90.607 2.09442 82.9815 5.77749 80C8.51415 77.7846 16.8562 77.287 17.9997 75" stroke="#15CE79" stroke-width="3" stroke-linecap="round"/>
</svg>

<svg xmlns="http://www.w3.org/2000/svg" width="319" height="106" fill="none"><path stroke="#15CE79" stroke-linecap="round" stroke-width="3" d="M12 78c7.705-16.036 16.332-28.219 31.666-37.444C51.736 35.7 62.671 30.11 72.444 30.11c4.019 0 5.251 3.393 7.778 5.667.666.6.927-.99 1-1.222.85-2.708 2.327-4.994 4.333-7 10.448-10.449 31.163-11.234 44.056-5.445 2.497 1.122 18.199 13.261 19.944 10.722 3.884-5.65 6.765-12.454 12.667-16.389 8.762-5.84 21.86-7.51 32-8.833 8.556-1.116 16.364-1.9 21.555 5.945.351.53 4.149 7.407 4.778 6.777 4.08-4.08 5.93-8.416 11.334-11.555C242.173 2.803 252.356 2 264 2c13.485 0 26.213 2.409 37.777 9.778 9.015 5.744 12.444 15.65 14.112 25.778 1.602 9.73 2.49 21.622-1.612 30.888-5.092 11.507-17.56 21.264-28.277 27.334-21.593 12.229-49.953 7.257-73.223 4.222-20.323-2.65-41.528-1-62-1-22.955 0-45.825-1-68.777-1-16.432 0-32.757-2-49.222-2-5.355 0-11.019-.098-16.223-1.556-3.34-.935-7.18-.615-10.333-1.666C-.29 90.607 2.094 82.98 5.777 80c2.737-2.215 11.08-2.713 12.223-5"/></svg>
